packages/icons/general/union.svg

<svg width="14" height="14" viewBox="0 0 14 14" xmlns="http://www.w3.org/2000/svg">
<g>
        <path
            d="M10.0475 0.810742L10.0562 0.811496L10.0677 0.812496C11.4262 0.892888 12.4745 1.62324 13.0008 2.86171L13.0008 2.86172C13.284 3.52817 13.371 4.19061 13.2554 4.8277C13.1399 5.4645 12.8244 6.06303 12.3231 6.60595L12.3231 6.60596C11.8714 7.09502 11.3912 7.56361 10.9305 8.01328L10.9216 8.02192L10.9215 8.02199C10.7733 8.16651 10.6257 8.31103 10.4787 8.45555C10.229 8.70216 9.88732 8.84301 9.53866 8.84301C9.34513 8.84301 9.15899 8.8011 8.99213 8.72063C9.03112 8.80615 9.06098 8.89797 9.08049 8.99501L9.08052 8.99514C9.11865 9.18544 9.1019 9.39451 9.04854 9.58454C8.99526 9.77433 8.90104 9.96082 8.76849 10.1004L8.67537 10.1985L8.67531 10.1986L8.67038 10.2038C8.0653 10.8416 7.43253 11.5087 6.74666 12.1105L6.7466 12.1106C6.11374 12.6655 5.3944 12.9536 4.61224 12.9536C4.13841 12.9536 3.65401 12.8453 3.17291 12.6357L3.17288 12.6356C2.56512 12.3707 2.05457 11.9363 1.69758 11.3784L10.0475 0.810742ZM10.0475 0.810742H10.0388L10.0252 0.81074L10.0242 0.810744C9.0447 0.815226 8.34255 1.02477 7.79269 1.51869M10.0475 0.810742L10.0388 1.01074H10.0252C9.07454 1.01509 8.42713 1.21764 7.92634 1.66748M7.92634 1.66748L7.79275 1.51864C7.79273 1.51865 7.79271 1.51867 7.79269 1.51869M7.92634 1.66748C7.28328 2.24468 6.62034 2.89458 5.77721 3.77312L7.92634 1.66748ZM7.79269 1.51869C7.14477 2.10026 6.47814 2.7539 5.63291 3.63464L5.63288 3.63467C5.31474 3.96632 5.22312 4.44166 5.39085 4.87106M7.79269 1.51869L5.39085 4.87106M5.39085 4.87106C5.40729 4.91317 5.42584 4.95392 5.44635 4.99322C5.28215 4.90802 5.10051 4.86235 4.91296 4.86235C4.56768 4.86235 4.23439 5.01595 3.9706 5.27762L3.80557 5.4408L3.80542 5.44095C3.77252 5.47355 3.73954 5.50621 3.7065 5.53895C3.19516 6.04554 2.66805 6.56776 2.15511 7.09064C1.5006 7.75639 1.16432 8.57809 1.1584 9.52092H1.1584V9.52217V9.52403L1.1584 9.5259L1.1584 9.52649C1.16037 10.1886 1.34605 10.8293 1.69755 11.3783L5.39085 4.87106ZM6.42675 5.62907C6.44809 5.63071 6.47083 5.63142 6.49234 5.63142C6.56599 5.63142 6.63845 5.62369 6.70883 5.60995L6.09481 6.22396C6.10127 6.18301 6.10553 6.14184 6.10753 6.10054C6.11754 5.89382 6.07054 5.69197 5.9699 5.50783C6.10931 5.57688 6.26383 5.61894 6.42675 5.62907ZM6.42675 5.62907C6.4261 5.62902 6.42546 5.62897 6.42483 5.62892L6.44077 5.42955L6.42868 5.62919C6.42803 5.62915 6.42739 5.62911 6.42675 5.62907ZM7.29012 5.09218C7.22822 5.15016 7.14681 5.21173 7.05251 5.26627L7.17615 5.42547L7.39615 5.20546L7.29012 5.09218ZM7.29012 5.09218L7.3962 5.20542L8.36616 4.04244C8.31207 4.09598 8.25827 4.14935 8.20479 4.20239L8.20097 4.20618L8.1968 4.21031C8.16099 4.24582 8.12504 4.28146 8.08895 4.31722C7.82888 4.57488 7.56163 4.83803 7.29012 5.09218ZM7.93194 8.0435C7.85536 8.0435 7.77961 8.05063 7.70535 8.06451L8.33863 7.43123C8.29027 7.67368 8.31767 7.92184 8.42602 8.1492C8.27665 8.08084 8.10957 8.0435 7.93194 8.0435ZM8.90803 3.91609C8.86222 3.91609 8.81679 3.9186 8.7719 3.92357C8.93933 3.75982 9.10821 3.59731 9.27768 3.44007L9.27793 3.43983C9.43135 3.29698 9.60728 3.22754 9.80894 3.22754C9.89447 3.22754 9.98749 3.23979 10.0841 3.26595L10.0851 3.26621C10.4572 3.36494 10.7144 3.61664 10.8066 3.95112C10.8974 4.28172 10.8019 4.64256 10.5345 4.91634C10.3943 5.05979 10.2522 5.20362 10.1094 5.34706C10.1752 4.96883 10.0624 4.56531 9.77103 4.27375C9.54066 4.04264 9.23362 3.91609 8.90803 3.91609ZM3.95198 8.72308C4.02432 8.64898 4.09721 8.5748 4.17044 8.50064C4.12115 8.86541 4.23639 9.24836 4.51617 9.52814C4.74624 9.75821 5.05307 9.88558 5.37894 9.88558C5.44597 9.88558 5.5122 9.88019 5.57711 9.86963C5.47545 9.97042 5.37362 10.0708 5.2721 10.1701C5.07667 10.3601 4.82159 10.4642 4.55259 10.4642C4.28773 10.4642 4.04402 10.3634 3.86309 10.1814L3.86305 10.1814C3.6572 9.97446 3.56801 9.73147 3.58038 9.48627C3.59287 9.23862 3.71028 8.97035 3.9519 8.72316L3.95198 8.72308ZM8.64939 8.47079C8.64943 8.47083 8.64947 8.47087 8.64951 8.47091L8.75126 8.37399L8.64939 8.47079Z"
            fill="black"
            stroke="black"
            stroke-width="0.4"
        />
        <path
            fill-rule="evenodd"
            clip-rule="evenodd"
            d="M10.0274 1.44482C11.0358 1.50385 11.9454 2.00153 12.4158 3.10871C12.8936 4.23392 12.6811 5.28022 11.856 6.17367C11.4121 6.65389 10.9435 7.11114 10.4749 7.56833L10.4749 7.56839L10.4748 7.56843C10.3269 7.71279 10.1789 7.85714 10.0318 8.00221C9.89383 8.13828 9.71241 8.20662 9.53782 8.20662C9.37565 8.20662 9.21908 8.14822 9.10849 8.03141C8.87487 7.78599 8.90035 7.44924 9.18056 7.16778C9.39796 6.94971 9.61641 6.73269 9.83483 6.5157L9.83492 6.51561C10.2214 6.13171 10.6077 5.74789 10.988 5.3585C11.8852 4.4402 11.4869 2.98072 10.2474 2.6508C10.0989 2.61166 9.95161 2.59116 9.80809 2.59116C9.45456 2.59116 9.1234 2.71418 8.84505 2.97389C8.52186 3.27447 8.20846 3.58533 7.89515 3.89611L7.89515 3.89611C7.5971 4.19174 7.29914 4.4873 6.9929 4.77384C6.86615 4.89252 6.6605 4.99565 6.49212 4.99565C6.48342 4.99565 6.47534 4.99565 6.46665 4.99503C6.00439 4.96707 5.77139 4.40727 6.09075 4.07424C6.77793 3.35848 7.47877 2.65329 8.2169 1.99096C8.66611 1.58711 9.25077 1.44855 10.0274 1.44482ZM8.90861 4.55034C9.05835 4.55034 9.20809 4.60751 9.32241 4.72183C9.55106 4.95047 9.55106 5.32078 9.32241 5.54942L5.79333 9.07851C5.67901 9.19283 5.52927 9.24999 5.37953 9.24999C5.22979 9.24999 5.08006 9.19283 4.96573 9.07851C4.73709 8.84986 4.73709 8.47956 4.96573 8.25091L8.49482 4.72183C8.60914 4.60751 8.75888 4.55034 8.90861 4.55034ZM5.30315 5.66615C5.19069 5.55307 5.05524 5.49653 4.91358 5.49653C4.74769 5.49653 4.5731 5.57357 4.41777 5.72828C4.3626 5.78294 4.30742 5.83759 4.25225 5.89224C3.70161 6.43765 3.1512 6.98282 2.60849 7.53569C2.06795 8.08556 1.79892 8.75285 1.79395 9.52515C1.79643 10.623 2.41713 11.614 3.42677 12.0539C3.83062 12.2297 4.22765 12.3192 4.61286 12.3192C5.22424 12.3192 5.80393 12.0943 6.32832 11.6339C6.99434 11.0491 7.60724 10.4026 8.21876 9.75764C8.24846 9.72632 8.27814 9.69501 8.30784 9.6637C8.42402 9.54068 8.49113 9.28843 8.45757 9.12067C8.40041 8.83549 8.17736 8.67892 7.93132 8.67892C7.77475 8.67892 7.60948 8.74229 7.47154 8.87712C7.18831 9.15439 6.90836 9.43538 6.62835 9.71646C6.32544 10.0205 6.02244 10.3246 5.71508 10.6243C5.38951 10.9411 4.9695 11.0989 4.5526 11.0989C4.13693 11.0989 3.72376 10.9411 3.4131 10.6286C2.76258 9.97436 2.7924 9.00014 3.49822 8.27879C3.85806 7.91034 4.22382 7.54731 4.58943 7.18443C4.80398 6.97149 5.01847 6.7586 5.23169 6.54469C5.53179 6.24335 5.55602 5.92151 5.30315 5.66615Z"
            fill="white"
        />
    </g>
</svg>

<svg xmlns="http://www.w3.org/2000/svg" width="14" height="14">
    <path stroke="#000" stroke-width=".4" d="m10.047.81.01.001.01.001c1.36.08 2.408.811 2.934 2.05.283.666.37 1.329.254 1.966-.115.636-.43 1.235-.932 1.778-.452.489-.932.958-1.393 1.407l-.008.009-.443.434a1.35 1.35 0 0 1-.94.387c-.194 0-.38-.042-.547-.122.04.085.069.177.088.274.039.19.022.4-.031.59a1.25 1.25 0 0 1-.28.515l-.094.098-.005.006c-.605.638-1.237 1.305-1.923 1.906-.633.556-1.353.844-2.135.844-.474 0-.958-.109-1.44-.318a3.32 3.32 0 0 1-1.474-1.258L10.048.811Zm0 0h-.022c-.98.005-1.682.215-2.232.709M10.047.81l-.008.2h-.014c-.95.004-1.598.207-2.099.656m0 0-.133-.148m.133.148a39.813 39.813 0 0 0-2.149 2.106l2.15-2.106Zm-.133-.148a40.007 40.007 0 0 0-2.16 2.116A1.16 1.16 0 0 0 5.39 4.87m2.403-3.35L5.39 4.87m0 0c.016.042.035.083.055.122a1.155 1.155 0 0 0-.533-.13c-.345 0-.679.153-.942.415l-.165.163-.1.098c-.51.507-1.038 1.029-1.55 1.552a3.393 3.393 0 0 0-.998 2.43v.005a3.44 3.44 0 0 0 .54 1.852L5.39 4.871Zm1.036.758a1.13 1.13 0 0 0 .282-.02l-.614.615a1.114 1.114 0 0 0-.125-.716c.14.069.294.11.457.121Zm0 0h-.002l.016-.2-.012.2h-.002Zm.863-.537a1.3 1.3 0 0 1-.237.174l.123.16.22-.22-.106-.114Zm0 0 .106.113.97-1.163-.161.16-.004.004-.004.004-.108.107c-.26.258-.527.521-.799.775Zm.642 2.952c-.077 0-.152.007-.227.02l.634-.633c-.049.243-.021.49.087.718a1.183 1.183 0 0 0-.494-.105Zm.976-4.128c-.046 0-.091.003-.136.008.167-.164.336-.327.506-.484a.752.752 0 0 1 .53-.212c.086 0 .18.012.276.038h.001c.372.099.63.35.722.685a.998.998 0 0 1-.273.965c-.14.144-.282.288-.425.431a1.22 1.22 0 0 0-1.201-1.43ZM3.952 8.723l.218-.222A1.219 1.219 0 0 0 5.577 9.87l-.305.3c-.195.19-.45.294-.72.294a.962.962 0 0 1-.689-.283.906.906 0 0 1-.283-.695c.013-.247.13-.516.372-.763Zm4.697-.252.102-.097-.102.097Z"/>
    <path fill="#fff" fill-rule="evenodd" d="M10.027 1.445c1.009.059 1.918.557 2.389 1.664.478 1.125.265 2.171-.56 3.065-.444.48-.912.937-1.381 1.394l-.443.434a.708.708 0 0 1-.494.205.585.585 0 0 1-.43-.176c-.233-.245-.208-.582.073-.863.217-.218.435-.435.654-.652.386-.384.773-.768 1.153-1.157.897-.919.499-2.378-.74-2.708a1.726 1.726 0 0 0-.44-.06 1.38 1.38 0 0 0-.963.383c-.323.3-.637.611-.95.922-.298.296-.596.591-.902.878-.127.119-.333.222-.5.222l-.026-.001c-.463-.028-.696-.588-.376-.92A40.023 40.023 0 0 1 8.217 1.99c.45-.404 1.034-.542 1.81-.546ZM8.91 4.55a.585.585 0 0 1 .414 1l-3.53 3.529a.583.583 0 0 1-.827 0 .585.585 0 0 1 0-.828l3.529-3.53a.583.583 0 0 1 .414-.17ZM5.303 5.666a.543.543 0 0 0-.39-.17c-.165 0-.34.078-.495.232l-.166.164c-.55.546-1.1 1.09-1.644 1.644-.54.55-.81 1.217-.814 1.99.002 1.097.623 2.088 1.633 2.528.404.176.8.265 1.186.265.611 0 1.19-.225 1.715-.685.666-.585 1.28-1.231 1.89-1.876l.09-.094a.706.706 0 0 0 .15-.543.526.526 0 0 0-.527-.442.66.66 0 0 0-.46.198c-.283.277-.563.558-.843.84-.303.303-.606.608-.913.907a1.664 1.664 0 0 1-1.162.475c-.416 0-.83-.158-1.14-.47-.65-.655-.62-1.629.085-2.35.36-.369.726-.732 1.091-1.095.215-.213.43-.425.643-.64.3-.3.324-.622.071-.878Z" clip-rule="evenodd"/>
</svg>
